share/.local/share/icons/Papirus-Nordic/64x64/apps/josm.svg

<svg width="64" height="64" version="1.1" xmlns="http://www.w3.org/2000/svg">
 <path d="m6.0417613 9.55164v45.764324s-0.4132353 2.471622 1.3547722 2.991476l16.603294 4.69256 15.999999-5.157894 15.539863 4.43923c2.630486 0.935498 2.444154-1.866958 2.444154-1.866958v-46.128498c0.243164-2.397293-2.3689-2.891501-2.3689-2.891501l-15.615117-4.3943726-15.999999 5.1578936-15.69657-4.4929372s-2.2614967-0.640298-2.2614967 1.8866772z" style="opacity:.2"/>
 <path d="m6.0428013 22.886712-0.00104 31.429248s-0.4132353 2.471622 1.3547722 2.991476l0.7089353 0.200375 24.773264 1.632813 7.121094-2.298522 3.378906 0.966492 14.605111 1.60578v-46.128497c0.243164-2.397294-2.3689-2.891502-2.3689-2.891502l-15.615117-4.3943725-1.21875 0.3945316-3.781077 3.6054659-3.070485-1.3984348-7.929687 2.5563308-4-1.146175z" style="fill:#ffc107"/>
 <path d="m38.781077 6.3945341-6.851562 2.2070311c-1.517096 1.7893018-2.40625 3.9256218-2.40625 6.9414058 0 4.136367 1.635462 5.010727 2.167968 6.999999 1.011276 3.778092 1.400376 6.440784 2.609376 9.546876 1.66369 4.275727 0.25898 11.022531 2.03125 15.273437 1.01103 2.425184 1.550222 2.863992 4.335936 4.136718 0.619048 0.636362 1.545948 1.906606 1.85547 2.542967 0.59272 1.218554 0.55833 2.6987 0.855468 3.765626l12.160155 3.472656c0.986432 0.350812 1.577294 0.17558 1.929688-0.17968 0.304304-0.30678 0.405302-0.731662 0.457032-1.085938 0.0082-0.05592 0.04198-0.12502 0.04688-0.17578 2.16e-4 -0.0022-2.1e-4 -0.0016 0-4e-3 0.02364-0.248114 0.0118-0.421876 0.0118-0.421876v-0.710852c-1.28042-11.979569-9.291434-13.837261-12.628993-16.703123-3.758486-3.227254-1.356838-6.313918-2.83203-10.863281-0.350688-1.0815-1.236422-4.773794-1.85547-5.410156-2.785714-1.909094-4.333146-3.81818-5.261718-6.999999-1.82696-6.260402 3.483308-10.058135 3.375-12.332031zm-20.812499 46.968749c-0.269182-0.02112-0.540927-0.0068-0.824219 0.04688-2.58409 0.487264-2.476934 3.499645-4.953125 2.863281-1.260749-0.32387-2.9826472 0.14892-4.0859368 1.234374l15.894531 4.492182 8.878905-2.859376c-1.931598-2.993222-7.436731-7.445871-8.878905-4.777342-1.895834 0.835228-4.146969-0.852145-6.03125-0.999999z" style="fill:#0c7bd4"/>
 <path d="m31.929688 8.6015625c-1.517096 1.7893015-2.406251 3.9256225-2.40625 6.9414065 0 0.214744 0.0052 0.415508 0.01367 0.613281 0.07488-2.808481 0.942767-4.844743 2.392579-6.5546875zm3.115234 8.0312495c-0.05418 0.958918 0.03798 1.98576 0.361328 3.09375 0.928572 3.18182 2.476005 5.090907 5.261719 7 0.619048 0.636363 1.50478 4.328657 1.855469 5.410157 1.475191 4.549363-0.926455 7.636027 2.832031 10.863281 3.33254 2.861552 11.324366 4.719207 12.623047 16.650391 8.86e-4 -0.09157 0.0059-0.236329 0.0059-0.236329v-0.710937c-1.280461-11.979569-9.291388-13.837263-12.628947-16.703125-3.758486-3.227254-1.35684-6.313918-2.832031-10.863281-0.350688-1.0815-1.236421-4.773794-1.855469-5.410157-2.785714-1.909093-4.333147-3.81818-5.261719-7-0.213647-0.732098-0.322809-1.427505-0.361328-2.09375zm-17.482422 36.726563c-0.136995 0.0076-0.276323 0.02394-0.417969 0.05078-2.58409 0.487264-2.476934 3.499646-4.953125 2.863282-1.260749-0.32387-2.9826477 0.148921-4.0859372 1.234374l0.9804687 0.277344c0.9977395-0.552787 2.1765205-0.750353 3.1054685-0.511718 2.476191 0.636364 2.369035-2.376018 4.953125-2.863282 0.283292-0.05368 0.555037-0.068 0.824219-0.04687 1.884281 0.147854 4.135416 1.835228 6.03125 1 1.316733-2.436419 6.012594 1.061398 8.291016 3.966797l0.58789-0.189453c-1.931598-2.993226-7.436732-7.445877-8.878906-4.777348-1.895834 0.835228-4.146969-0.852146-6.03125-1-0.134591-0.01056-0.269255-0.01156-0.40625-0.0039z" style="opacity:.2"/>
 <path d="m7.7927973 7.6170097c-0.14925-0.00648-0.3119874 0.00206-0.4882812 0.035156-0.064166 0.01242-0.126908 0.01476-0.191406 0.035156-0.040916 0.01296-0.080604 0.034138-0.121094 0.050782-0.11908 0.049078-0.2318044 0.119946-0.3398438 0.2070312-0.047314 0.038238-0.09305 0.082084-0.136718 0.1289059-0.09532 0.102436-0.171276 0.2374592-0.2421874 0.3867188-0.031334 0.066024-0.068548 0.12289-0.09375 0.199218-0.080222 0.2432128-0.13632 0.5281712-0.136718 0.890625-1.8e-6 0.00155 0 0.00236 0 0.0039v14.332028c0.5940028-0.281458 1.3953034-0.660156 1.8125-0.660156 1.3437665 0 2.1684911 0.318528 3.5390621 0.13672 0.845867-0.11244 1.424004-0.934482 2.210938-1.13672 0.743475-0.1909 1.720264-0.13334 2.433593-0.5 0.973761-0.500176 2.342039-1.9993 3.093748-5.226554 0.217471-0.9338-0.265624-1.955609-0.265624-2.910156 0-0.580057 0.594391-1.70865 1.132812-2.578125l-11.683593-3.3437491-0.01172-0.0039s-0.00388 9.2e-6 -0.0039 0c0 0-0.2707846-0.02824-0.5078123-0.046874z" style="opacity:.2"/>
 <path d="m7.7927973 6.6171905c-0.14925-0.00648-0.3119874 0.00206-0.4882812 0.035156-0.064166 0.01242-0.126908 0.01476-0.191406 0.035156-0.040916 0.01296-0.080604 0.034138-0.121094 0.050782-0.11908 0.049078-0.2318044 0.119946-0.3398438 0.2070312-0.047314 0.038238-0.09305 0.082084-0.136718 0.1289059-0.09532 0.102436-0.171276 0.2374592-0.2421874 0.3867188-0.031334 0.066024-0.068548 0.12289-0.09375 0.199218-0.080222 0.2432128-0.13632 0.5281712-0.136718 0.890625-1.8e-6 0.00155 0 0.00236 0 0.0039v14.332029c0.5940028-0.281458 1.3953034-0.660156 1.8125-0.660156 1.3437665 0 2.1684911 0.318528 3.5390621 0.13672 0.845867-0.11244 1.424004-0.934482 2.210938-1.13672 0.743475-0.1909 1.720264-0.13334 2.433593-0.5 0.973761-0.500176 2.342039-1.9993 3.093748-5.226554 0.217471-0.9338-0.265624-1.955609-0.265624-2.910156 0-0.580057 0.594391-1.70865 1.132812-2.578125l-11.683593-3.3437493-0.01172-0.0039s-0.00388 9.2e-6 -0.0039 0c0 0-0.2707846-0.02824-0.5078123-0.046874z" style="fill:#4caf50"/>
 <path d="m31.690303 27.681454-0.619048-2.545454-3.404762 2.863638 0.619048 2.545452z" style="opacity:.2"/>
 <path d="m31.690303 26.681818-0.619048-2.545454-3.404762 2.863638 0.619048 2.545452z" style="fill:#81c784"/>
 <path d="m14.666495 49.636272 9.333333-0.636362 3.357143-2.545456v-6.045454l-3.357143 2.545454-9.333333 0.954546z" style="opacity:.2"/>
 <path d="m14.666495 48.636361 9.333333-0.636362 3.357143-2.545456v-6.045454l-3.357143 2.545454-9.333333 0.954546z" style="fill:#4d7687"/>
 <path d="m27.538207 35.318635-0.928571-4.709091-2.609808 1.845458-4.380952 0.954544-1.547619-7.954546-6.5 1.59091 2.476189 13.522723 9.952382-2.386362z" style="opacity:.2"/>
 <path d="m27.538207 34.318181-0.928571-4.709091-2.609808 1.845458-4.380952 0.954544-1.547619-7.954546-6.5 1.59091 2.476189 13.522723 9.952382-2.386362z" style="fill:#df5050"/>
 <path d="m50.571254 16.545v5.727272l5.261904 1.590906v-5.727268z" style="opacity:.2"/>
 <path d="m50.571254 15.545456v5.727272l5.261904 1.590906v-5.727268z" style="fill:#ff8a65"/>
 <path d="m23.999828 14.636455 7.071427-2.545455v2.545455l-1.857144 0.636363v0.845282l-5.214283 2.018355-1.595238-0.318183v-3.499999z" style="opacity:.2"/>
 <path d="m23.999828 13.636366 7.071427-2.545455v2.545455l-1.857144 0.636363v0.845282l-5.214283 2.018355-1.595238-0.318183v-3.499999z" style="fill:#00bcd4"/>
 <path d="m46.547445 35.954239 5.261905 3.5 1.857142-2.545456-5.261904-3.499997z" style="opacity:.2"/>
 <path d="m53.356162 26.408-1.856336 2.547288 5.2615 3.5 1.221572-1.675166v-1.29523z" style="opacity:.2"/>
 <path d="m49.023634 32.454242 5.261904 3.499997 1.857144-2.545453-5.261904-3.5z" style="opacity:.2"/>
 <path d="m46.547445 34.954545 5.261905 3.5 1.857142-2.545456-5.261904-3.499997z" style="fill:#b89b00"/>
 <path d="m53.356162 25.408306-1.856336 2.547288 5.2615 3.5 1.221572-1.675166v-1.29523z" style="fill:#b89b00"/>
 <path d="m49.023634 31.454548 5.261904 3.499997 1.857144-2.545453-5.261904-3.5z" style="fill:#b89b00"/>
 <path d="m10.51936 27.126646-0.9281688 0.31949 2.1046008 12.408303-0.290582 10.350328 1.055121-0.16406 0.287761-10.249588zm1.940971 22.914061-0.02258 0.759868-1.0523 0.06332 0.01974-0.659126-0.14388 0.02304-5.2191831 3.75329v0.333879s-0.1097479 0.707608 0.05078 1.444902l5.4787391-3.940389 0.617838-0.19284 11.810339-0.762748 4.905155-3.5-0.31033-1.591692-4.594825 3.5-11.5 0.762738z" style="fill:#646464"/>
 <ellipse cx="11.912" cy="50.896" rx=".836" ry=".859" style="fill:#222222;stroke-linecap:round;stroke-linejoin:round;stroke-width:.50211668;stroke:#ffffff"/>
 <ellipse cx="28.904" cy="46.441" rx=".836" ry=".859" style="fill:#222222;stroke-linecap:round;stroke-linejoin:round;stroke-width:.50211668;stroke:#ffffff"/>
 <ellipse cx="10.024" cy="27.349" rx=".836" ry=".859" style="fill:#222222;stroke-linecap:round;stroke-linejoin:round;stroke-width:.50211668;stroke:#ffffff"/>
 <ellipse cx="12.191" cy="39.823" rx=".836" ry=".859" style="fill:#222222;stroke-linecap:round;stroke-linejoin:round;stroke-width:.50211668;stroke:#ffffff"/>
 <path d="m6.0417613 8.551636v45.764324s-0.4132353 2.471622 1.3547722 2.991476l16.603294 4.69256v-50.8421l-15.69657-4.4929371s-2.2614967-0.640298-2.2614967 1.8866771z" style="fill:#ffffff;opacity:.3"/>
 <path d="m39.999827 56.842102 15.539863 4.43923c2.630486 0.935498 2.444154-1.866958 2.444154-1.866958v-46.128497c0.243164-2.397294-2.3689-2.891502-2.3689-2.891502l-15.615117-4.3943725z" style="fill:#ffffff;opacity:.3"/>
 <path d="m50.929687 3.000002c-2.375536 0.074282-4.485288 2.3007541-5.292969 3.7499998l-16.011718 29.308592-0.457032 8.023438-0.167968 2.917968 2.285156-1.675782 6.285156-4.61328 0.203126-0.14844 16.355467-29.546873c1.842754-3.1348 0.490944-6.8002089-1.523438-7.687498-0.563644-0.2482724-1.12758-0.345267-1.67578-0.328125z" style="opacity:.2"/>
 <path d="m29.626314 35.057061-0.459854 8.026732 2.118706 1.24039 6.285592-4.612076z" style="fill:#d9c8b1"/>
 <path d="m40 6-16 5.15625-15.695312-4.4921875s-2.2617187-0.6402564-2.2617187 1.8867187v1c0-2.5269751 2.2617187-1.8867187 2.2617187-1.8867187l15.695312 4.4921875 16-5.15625 15.613281 4.394531s2.203909 0.42117 2.371094 2.351563v-0.460938c0.243164-2.397294-2.371094-2.890625-2.371094-2.890625zm17.984375 8.746094v0.539062c0.0196-0.193188 0.01465-0.369865 0-0.539062zm-51.941406 39.570312s-0.052324 0.47452-0.00195 1.027344c2.056e-4 -0.0017 0.00195-0.02734 0.00195-0.02734z" style="fill:#ffffff;opacity:.2"/>
 <path d="m29.16646 43.083793-0.16646 2.916208 2.285156-1.675818z" style="fill:#505050"/>
 <path d="m50.929047 2.0019413c-2.375536 0.074282-4.484854 2.3005727-5.292535 3.7498184l-16.010198 29.305301 7.944444 4.655046 0.203124-0.14896 16.354383-29.548796c1.842754-3.1348015 0.490944-6.7985512-1.523438-7.6858403-0.563644-0.2482724-1.12758-0.3437114-1.67578-0.3265694z" style="fill:#a15f34"/>
 <path d="m50.929688 2.0019531c-2.375536 0.074282-4.485288 2.3007543-5.292969 3.75l-16.009766 29.304688 0.414063 0.242187 15.595703-28.548828c0.807681-1.4492457 2.917432-3.675718 5.292969-3.75 0.548199-0.017142 1.112137 0.0798526 1.675781 0.328125 1.231636 0.5425074 2.211631 2.1249319 2.36914 3.9882812 0.176103-2.2782985-0.921715-4.3507234-2.36914-4.9882812-0.563644-0.2482724-1.127581-0.3433139-1.675781-0.3261719z" style="fill:#ffffff;opacity:.2"/>
</svg>

<svg xmlns="http://www.w3.org/2000/svg" width="64" height="64" version="1.1">
 <path style="opacity:0.2" d="m 6.0417613,9.55164 v 45.764324 c 0,0 -0.4132353,2.471622 1.3547722,2.991476 L 23.999828,63 39.999827,57.842106 55.53969,62.281336 c 2.630486,0.935498 2.444154,-1.866958 2.444154,-1.866958 V 14.28588 c 0.243164,-2.397293 -2.3689,-2.891501 -2.3689,-2.891501 L 39.999827,7.0000064 23.999828,12.1579 8.303258,7.6649628 c 0,0 -2.2614967,-0.640298 -2.2614967,1.8866772 z"/>
 <path style="fill:#ffc107" d="M 6.0417613,8.551636 V 54.31596 c 0,0 -0.4132353,2.471622 1.3547722,2.991476 l 16.6032945,4.69256 15.999999,-5.157894 15.539863,4.43923 c 2.630486,0.935498 2.444154,-1.866958 2.444154,-1.866958 V 13.285877 c 0.243164,-2.397294 -2.3689,-2.891502 -2.3689,-2.891502 L 39.999827,6.0000025 23.999828,11.157896 8.303258,6.6649589 c 0,0 -2.2614967,-0.640298 -2.2614967,1.8866771 z"/>
 <path style="fill:#0c7bd4" d="m 38.781077,6.3945341 -6.851562,2.2070311 c -1.517096,1.7893018 -2.40625,3.9256218 -2.40625,6.9414058 0,4.136367 1.635462,5.010727 2.167968,6.999999 1.011276,3.778092 1.400376,6.440784 2.609376,9.546876 1.66369,4.275727 0.25898,11.022531 2.03125,15.273437 1.01103,2.425184 1.550222,2.863992 4.335936,4.136718 0.619048,0.636362 1.545948,1.906606 1.85547,2.542967 0.59272,1.218554 0.55833,2.6987 0.855468,3.765626 l 12.160155,3.472656 c 0.986432,0.350812 1.577294,0.17558 1.929688,-0.17968 0.304304,-0.30678 0.405302,-0.731662 0.457032,-1.085938 0.0082,-0.05592 0.04198,-0.12502 0.04688,-0.17578 2.16e-4,-0.0022 -2.1e-4,-0.0016 0,-0.004 0.02364,-0.248114 0.0118,-0.421876 0.0118,-0.421876 V 58.703124 C 56.703868,46.723555 48.692854,44.865863 45.355295,42.000001 41.596809,38.772747 43.998457,35.686083 42.523265,31.13672 c -0.350688,-1.0815 -1.236422,-4.773794 -1.85547,-5.410156 -2.785714,-1.909094 -4.333146,-3.81818 -5.261718,-6.999999 -1.82696,-6.260402 3.483308,-10.0581346 3.375,-12.3320309 z M 17.968578,53.363283 c -0.269182,-0.02112 -0.540927,-0.0068 -0.824219,0.04688 -2.58409,0.487264 -2.476934,3.499645 -4.953125,2.863281 -1.260749,-0.32387 -2.9826472,0.14892 -4.0859368,1.234374 L 23.999828,62 32.878733,59.140624 c -1.931598,-2.993222 -7.436731,-7.445871 -8.878905,-4.777342 -1.895834,0.835228 -4.146969,-0.852145 -6.03125,-0.999999 z"/>
 <path style="fill:#4caf50" d="m 7.7927973,6.6171905 c -0.14925,-0.00648 -0.3119874,0.00206 -0.4882812,0.035156 -0.064166,0.01242 -0.126908,0.01476 -0.191406,0.035156 -0.040916,0.01296 -0.080604,0.034138 -0.121094,0.050782 -0.11908,0.049078 -0.2318044,0.119946 -0.3398438,0.2070312 -0.047314,0.038238 -0.09305,0.082084 -0.136718,0.1289059 -0.09532,0.102436 -0.171276,0.2374592 -0.2421874,0.3867188 -0.031334,0.066024 -0.068548,0.12289 -0.09375,0.199218 -0.080222,0.2432128 -0.13632,0.5281712 -0.136718,0.890625 -1.8e-6,0.00155 0,0.00236 0,0.0039 V 22.886712 c 0.5940028,-0.281458 1.3953034,-0.660156 1.8125,-0.660156 1.3437665,0 2.1684911,0.318528 3.5390621,0.13672 0.845867,-0.11244 1.424004,-0.934482 2.210938,-1.13672 0.743475,-0.1909 1.720264,-0.13334 2.433593,-0.5 0.973761,-0.500176 2.342039,-1.9993 3.093748,-5.226554 0.217471,-0.9338 -0.265624,-1.955609 -0.265624,-2.910156 0,-0.580057 0.594391,-1.70865 1.132812,-2.578125 L 8.3162346,6.6679717 l -0.01172,-0.0039 c 0,0 -0.00388,9.2e-6 -0.0039,0 0,0 -0.2707846,-0.02824 -0.5078123,-0.046874 z"/>
 <path style="fill:#81c784" d="m 31.690303,26.681818 -0.619048,-2.545454 -3.404762,2.863638 0.619048,2.545452 z"/>
 <path style="fill:#4d7687" d="m 14.666495,48.636361 9.333333,-0.636362 3.357143,-2.545456 v -6.045454 l -3.357143,2.545454 -9.333333,0.954546 z"/>
 <path style="fill:#df5050" d="m 27.538207,34.318181 -0.928571,-4.709091 -2.609808,1.845458 -4.380952,0.954544 -1.547619,-7.954546 -6.5,1.59091 2.476189,13.522723 9.952382,-2.386362 z"/>
 <path style="fill:#ff8a65" d="m 50.571254,15.545456 v 5.727272 l 5.261904,1.590906 v -5.727268 z"/>
 <path style="fill:#00bcd4" d="m 23.999828,13.636366 7.071427,-2.545455 v 2.545455 l -1.857144,0.636363 v 0.845282 l -5.214283,2.018355 -1.595238,-0.318183 v -3.499999 z"/>
 <path style="fill:#b89b00" d="m 46.547445,34.954545 5.261905,3.5 1.857142,-2.545456 -5.261904,-3.499997 z"/>
 <path style="fill:#b89b00" d="m 53.356162,25.408306 -1.856336,2.547288 5.2615,3.5 1.221572,-1.675166 v -1.29523 z"/>
 <path style="fill:#b89b00" d="m 49.023634,31.454548 5.261904,3.499997 1.857144,-2.545453 -5.261904,-3.5 z"/>
 <path style="fill:#646464" d="m 10.51936,27.126646 -0.9281688,0.31949 2.1046008,12.408303 -0.290582,10.350328 1.055121,-0.16406 0.287761,-10.249588 z m 1.940971,22.914061 -0.02258,0.759868 -1.0523,0.06332 0.01974,-0.659126 -0.14388,0.02304 -5.2191831,3.75329 v 0.333879 c 0,0 -0.1097479,0.707608 0.05078,1.444902 l 5.4787391,-3.940389 0.617838,-0.19284 11.810339,-0.762748 4.905155,-3.5 -0.31033,-1.591692 -4.594825,3.5 -11.5,0.762738 z"/>
 <ellipse style="fill:#222222;stroke:#ffffff;stroke-width:0.50211668;stroke-linecap:round;stroke-linejoin:round" cx="11.912" cy="50.896" rx=".836" ry=".859"/>
 <ellipse style="fill:#222222;stroke:#ffffff;stroke-width:0.50211668;stroke-linecap:round;stroke-linejoin:round" cx="28.904" cy="46.441" rx=".836" ry=".859"/>
 <ellipse style="fill:#222222;stroke:#ffffff;stroke-width:0.50211668;stroke-linecap:round;stroke-linejoin:round" cx="10.024" cy="27.349" rx=".836" ry=".859"/>
 <ellipse style="fill:#222222;stroke:#ffffff;stroke-width:0.50211668;stroke-linecap:round;stroke-linejoin:round" cx="12.191" cy="39.823" rx=".836" ry=".859"/>
 <path style="opacity:0.3;fill:#ffffff" d="M 6.0417613,8.551636 V 54.31596 c 0,0 -0.4132353,2.471622 1.3547722,2.991476 l 16.6032945,4.69256 c 0,4e-6 0,-50.8421 0,-50.8421 L 8.303258,6.6649589 c 0,0 -2.2614967,-0.640298 -2.2614967,1.8866771 z"/>
 <path style="opacity:0.3;fill:#ffffff" d="m 39.999827,56.842102 15.539863,4.43923 c 2.630486,0.935498 2.444154,-1.866958 2.444154,-1.866958 V 13.285877 c 0.243164,-2.397294 -2.3689,-2.891502 -2.3689,-2.891502 L 39.999827,6.0000025 Z"/>
 <path style="opacity:0.1" d="M 50.929687,3.000002 C 48.554151,3.074284 46.444399,5.3007561 45.636718,6.7500018 L 29.625,36.058594 29.167968,44.082032 29,47 l 2.285156,-1.675782 6.285156,-4.61328 0.203126,-0.14844 16.355467,-29.546873 C 55.971659,7.880825 54.619849,4.2154161 52.605467,3.328127 52.041823,3.0798546 51.477887,2.98286 50.929687,3.000002 Z"/>
 <path style="fill:#b1a390" d="m 29.626314,35.057061 -0.459854,8.026732 2.118706,1.24039 6.285592,-4.612076 z"/>
 <path style="opacity:0.2;fill:#ffffff" d="M 40 6 L 24 11.15625 L 8.3046875 6.6640625 C 8.3046875 6.6640625 6.0429688 6.0238061 6.0429688 8.5507812 L 6.0429688 9.5507812 C 6.0429688 7.0238061 8.3046875 7.6640625 8.3046875 7.6640625 L 24 12.15625 L 40 7 L 55.613281 11.394531 C 55.613281 11.394531 57.81719 11.815701 57.984375 13.746094 L 57.984375 13.285156 C 58.227539 10.887862 55.613281 10.394531 55.613281 10.394531 L 40 6 z M 57.984375 14.746094 L 57.984375 15.285156 C 58.003971 15.091968 57.999029 14.915291 57.984375 14.746094 z M 6.0429688 54.316406 C 6.0429688 54.316406 5.9906451 54.790926 6.0410156 55.34375 C 6.0412212 55.342002 6.0429688 55.316406 6.0429688 55.316406 L 6.0429688 54.316406 z"/>
 <path style="fill:#505050" d="M 29.16646,43.083793 29,46.000001 31.285156,44.324183 Z"/>
 <path style="fill:#a15f34" d="m 50.929047,2.0019413 c -2.375536,0.074282 -4.484854,2.3005727 -5.292535,3.7498184 l -16.010198,29.3053013 7.944444,4.655046 0.203124,-0.14896 16.354383,-29.548796 C 55.971019,6.8795495 54.619209,3.2157998 52.604827,2.3285107 52.041183,2.0802383 51.477247,1.9847993 50.929047,2.0019413 Z"/>
 <path style="opacity:0" d="m 51.929514,4.000003 c -2.375536,0.074282 -4.485288,2.3007541 -5.292969,3.7499998 l -16.011718,29.3085922 -0.457032,8.023438 -0.167968,2.917968 2.285156,-1.675782 6.285156,-4.61328 0.203126,-0.14844 16.355467,-29.546873 C 56.971486,8.880826 55.619676,5.2154171 53.605294,4.328128 53.04165,4.0798556 52.477714,3.982861 51.929514,4.000003 Z"/>
</svg>
